X:1
T:Pace e gioia sia con voi
T:Pace e gioia sia con voi
T:from 'The Barber Of Seville'
T:Gioacchino Rossini
T:Cesare Sterbini
C:Gioacchino Rossini
Z:Cesare Sterbini
%%score 1 2 { ( 3 5 ) | 4 }
L:1/8
Q:1/4=60
M:4/4
K:Bb
V:1 treble-8 nm="Tenor" snm="T."
V:2 bass nm="Bas" snm="Bs."
V:3 treble nm="Piano" snm="Pno."
V:5 treble 
V:4 bass 
V:1
 z8 | z8 | z2 BB BBBB |({Bc)} dB z2 z4 | z2 BB BBBB |({Bc)} dB z2 z4 | z2 dd dddd | %7
w: ||Pa ce e gio ia sia con|vo i|Gio- ia e pa ce per mill'|an ni|Pa ce e gio ia sia con|
{d=e^f} gd z2 z4 | z2 dd dddd |{d=e^f} gd z2 z4 | %10
w: vo i.|Gio ia e pa ce per mill'|an- ni|
 z2 z/ g/4 f/4 =e/4 d/4 c/4 B/4 A/4 A/4 z/ z z/ g/4f/4e/4d/4c/4B/4 | %11
w: ah se un colpo è andato a vuo to a gab bar que sto ba|
 A/4 A/4 z/ z z/ G/4 G/4 G/4 G/4 G/4 G/4 A/4 A/4 z/ z z/ B/4 B/4 B/4 B/4 B/4B/4 | %12
w: lor do un no vel tra ve sti men to più pro- pi- zio a me sa|
{/d} (c/=B/4c/4){/e} (d/c/4d/4){/f} (e/d/4e/4){/g} (f/=e/4f/4)[Q:1/4=20] (!>!!fermata!a/>[Q:1/4=60]g/) (g/4f/4) (f/4_e/4) (e/4d/4)(d/4c/4) (c/4_B/4)(B/4A/4) | %13
w: rà * * sì * * sì * * pro- * * pi- * zio * a * me * * * sa _ _ _|
 B z BB BBBB |{Bc} d B z2 z4 | z2 B B B B BB |({Bc)} d B z2 z4 | z2 dd z2 dd | z8 | z2 dd dddd | %20
w: rà Gio ia e pa ce, pa ce e|gio ia|Gio ia  pa ce, ben di|co re|Gio ia, pa ce...||Ben di co re, pa ce e|
{d=e^f} g d z2 f d z2 | ed z/ g/4 f/4 =e/4 d/4 c/4 B/4 A/4 A/4 z/ z z/ g/4f/4e/4d/4c/4B/4 | %22
w: gio ia, gio ia,|pa ce. Il vec chion non mi co no sce oh mia sor- te for- tu|
 A/4 A/4 z/ z !>!f-(f/4_e/4c/4A/4) (B/>d/) F/ F/ (!>!f(f/4)e/4) (c/4A/4) | %23
w: na ta! ah.......... ........... * ... ... mio........ * ben! fra po _ _ chi i|
 B/>d/ F !>!f-(f/4e/4) (c/4A/4) (B/>d/) F f-(f/4 e/4)(c/4A/4) | %24
w: stan _ ti par _ _ le _ rem * con li _ her _ _|
 B/ z/ e/4d/4 c/4d/4 e/4d/4 c/4d/4 e/4d/4 c/4d/4 f/4e/4 d/4e/4 f/4e/4 d/4e/4 f/4e/4 d/4e/4 f/4e/4 d/4e/4 | %25
w: tà! Ah * mio * ben, * fra * pu _ chi i stan _ ti * par _ le _ rem * con * li _ ber _|
!<(! f>!<)!!>(!^f!>)! g3/2 d/ e>=e =f3/2 c/ | %26
w: tà,......... * par le rem........ * par le|
 d/f/4f/4d/4d/4f/4f/4 e/4e/4g/4g/4e/4e/4g/4g/4 d/4d/4f/4f/4d/4d/4f/4f/4 c/4c/4e/4e/4c/4c/4e/4e/4 | %27
w: rem, ab mio ben, fra po chi istan- ti ab mio ben, fra po chi, istan- ti par- le re mo par- le- re- mo par- le rem con li ber|
 d2 z2({Bc)} d B z2 |({Bc)} d B z2({Bc)} d B z2 | %29
w: tà! Gio ia...|pa ce... gio ia...|
 z (e/4d/4) (c/4d/4) (e/4d/4) (c/4d/4) (e/4d/4) (c/4d/4) (f/4e/4) (d/4e/4) (f/4e/4) (d/4e/4) (f/4e/4) (d/4e/4) (f/4e/4) (d/4e/4) | %30
w: Ah * mio * ben, * fra * po _ chi i stan _ ti * par _ le _ rem * cod * li _ ber _|
!<(! f>!<)!!>(!^f!>)! g3/2 d/ e>=e =f3/2 c/ | %31
w: tà..... * par le rem..... * par le|
 d/f/4f/4d/4d/4f/4f/4 e/4e/4g/4g/4e/4e/4g/4g/4 d/4d/4f/4f/4d/4d/4f/4f/4 c/4c/4e/4e/4c/4c/4e/4e/4 | %32
w: rem, ah mio ben, fra po chi istan ti, ah mio ben fra po chi istan ti par- le re- mo, par le re mo, par le rem con li ber|
 d/ f/4 f/4 (f/4g/4) e/4 e/4 (e/4f/4) d/4 d/4 d/4 e/4 c/4 c/4 f/ f/4 f/4 (f/4g/4) e/4 e/4 (e/4f/4) d/4 d/4 d/4 e/4c/4c/4 | %33
w: tà par le rem, * par le rem, _ par le rem con li ber- tà! par le rem, * par- le rem, * par- le rem con li ber|
 (g/4f/4) (f/4e/4) (e/4d/4) (d/4c/4) (g/4f/4) (f/4e/4) (e/4d/4) (d/4c/4) (g/4f/4) (f/4e/4) (e/4d/4) (d/4c/4) (g/4f/4) (f/4e/4) (e/4d/4) (d/4c/4) | %34
w: tà * con * li _ ber _ tà, * con * li _ ber _ tà, * con * li _ ber _ tà, * con * li _ ber _|
 B2 z2 z4 | z8 | z8 |] %37
w: tà!|||
V:2
 z8 | z8 | z8 | z3 F,/F,/ B,B, z F,/F,/ | D/B,/B, z2 z4 | z3 z/ F,/ F,/B,B,C/A,/F,/ | B,2 z2 z4 | %7
w: |||Mil le gra zie, non s'in|co mo di|Ob bli ga to in ve ri|tà|
w: |||||||
 z2 z F,/F,/ B,B, z F,/F,/ | D/B,/B, z2 z4 | z3 D,/D,/ G,G, z/ A,/^F,/D,/ | %10
w: Mil le gra zie, non s'in|co mo di|Ob bli ga to in ve ri|
w: |||
 G,/ D/4 C/4 B,/4 A,/4 G,/4 F,/4 =E,/4 E,/4 z/ z z/ D/4 C/4 B,/4 A,/4 G,/4 F,/4 E,/4 E,/4 z/ z | %11
w: tà Que sto vol to non m'è igno to, non ra vi so, non ri cor- do|
w: |
 z/ F,/4 F,/4 F,/4 F,/4 F,/4 F,/4 G,/4 G,/4 z/ z z/ A,/4 A,/4 A,/4 A,/4 A,/4 A,/4 B, z | z8 | z8 | %14
w: ma quel vol to, ma quel vol to... non ca pi sco chi sa rà?|||
w: |||
 z3 F,/ F,/ B,B, z/ F,/A,/F,/ | DB, z2 z4 | %16
w: Ho ca pi to. (Oh ciel! che|no la!)|
w: ||
 z/ F,/ F,/ A,/ F,/ z/ F,/ F,/ B,/ F,/ F,/ F,/ C/ F,/ F,/ F,/ | B,2 z2 DD z2 | %18
w: Bas- ta bas- ta bas- ta bas- ta bas- ta bas- ta, per pie|tà Gio ia,|
w: ||
 D/D/ z/ D,/4 D,/4 ^F,/ D,/ z/ D,/4 D,/4 G,D, z/ A,/F,/D,/ | B,/G,/ z z2 z4 | %20
w: pa ce... Ho ca pi to Ho ca pi to (Oh ciel! che|no ia!)|
w: ||
 D D C/ A,/ z B,/ G,/ z C/ A,/ C/ A,/ | %21
w: gio ia... bas ta bas ta bas ta, per pie|
w: |
 G,/ D/4 C/4 B,/4 A,/4 G,/4 F,/4 =E,/4 E,/4 z/ z z/ D/4 C/4 B,/4 A,/4 G,/4 F,/4 E,/4 E,/4 z/ z | %22
w: tà * * * * * * * * * * * * * * * *|
w: * Ma che per- fi- do des- ti- no! ma che bar- ba- ra gior- na ;|
 z/ F,/4F,/4F,/4F,/4F,/4F,/4 _E,/4E,/4 C/4C/4A,/4A,/4E,/4E,/4 D,/4D,/4B,/4B,/4F,/4F,/4D,/4D,/4 E,/4E,/4C/4C/4A,/4A,/4E,/4E,/4 | %23
w: ma che per- fi do des- ti no! ma che har- bar- a gior- na- ta! ma che per- fi do des- ti no! ma che bar- bar- ra gior|
w: |
 D,/4 D,/4 B,/4 B,/4 F,/4 F,/4 D,/4 D,/4 E,/4 E,/4 C/4 C/4 A,/4 A,/4 E,/4 E,/4 D,/4 D,/4 B,/4 B,/4 F,/4 F,/4 D,/4 D,/4 E,/4 E,/4 C/4 C/4 A,/4 A,/4 E,/4 E,/4 | %24
w: na ta! tu- tti quan- tia me da van ti! tu tti quan- tia me da van ti! tu tti quan- ti a me da van ti! che cru del fa ta li|
w: |
 D,/ z/ C/4B,/4 A,/4B,/4 C/4B,/4 A,/4B,/4C/4B,/4 A,/4B,/4 D/4C/4 =B,/4C/4 D/4C/4 B,/4C/4 D/4C/4 B,/4C/4 D/4C/4 B,/4C/4 | %25
w: tà! ma * che * per _ fi _ do * de _ sti _ no! * ma * che * bar _ ba _ ra * gior _|
w: |
 D/4D/4E/4E/4D/4D/4C/4C/4 =B,/4B,/4G,/4G,/4A,/4A,/4B,/4B,/4 C/4C/4_D/4D/4C/4C/4_B,/4B,/4 A,/4A,/4F,/4F,/4G,/4G,/4A,/4A,/4 | %26
w: na- ta! ma che per- fi- do des- ti- no! ma che bar- ba- ra gior- na- ta! Tu tti qua nti a me da van ti! che cru del fa ta li|
w: |
 B,/D/4D/4B,/4B,/4D/4D/4 C/4C/4E/4E/4C/4C/4E/4E/4 B,/4B,/4D/4D/4B,/4B,/4D/4D/4 A,/4A,/4C/4C/4A,/4A,/4C/4C/4 | %27
w: tà! ma che per fi do de sti no! ma che bar ba ra gior- na ta! Tu tti quan- ti a me da van- ti! Che cru del fa ta li|
w: |
 B,2 z2 z3/2 B,/ C A, | z3/2 B,/ C A, z B,/ F,/ C/ A,/ E3/4 C/4 | %29
w: tà (Che no ia!)|Ma ba sta ba sta ba sta, per pie|
w: ||
 B,/ z/ (C/4B,/4) (A,/4B,/4) (C/4B,/4) (A,/4B,/4) (C/4B,/4) (A,/4B,/4) (D/4C/4) (=B,/4C/4) (D/4C/4) (B,/4C/4) (D/4C/4) (B,/4C/4) (D/4C/4) (B,/4C/4) | %30
w: tà Ma * che * per _ fi _ do * de _ sti _ no! * ma * che * bar _ ba _ ra * gior _|
w: |
 D/4D/4E/4E/4D/4D/4C/4C/4 =B,/4B,/4G,/4G,/4A,/4A,/4B,/4B,/4 C/4C/4_D/4D/4C/4C/4_B,/4B,/4 A,/4A,/4F,/4F,/4G,/4G,/4A,/4A,/4 | %31
w: na ta! ma che per fi do des ti no! ma che bar ba ra gior na ta! tu tti qua ntia me da van ti! che cru del fa ta li|
w: |
 B,/D/4D/4B,/4B,/4D/4D/4 C/4C/4E/4E/4C/4C/4E/4E/4 B,/4B,/4D/4D/4B,/4B,/4D/4D/4 A,/4A,/4C/4C/4A,/4A,/4C/4C/4 | %32
w: tà! ma che per fi do de sti no! ma che bar- ba ra gior na ta! Tu tti quan- ti a me da van- ti! che cru del fa ta li|
w: |
 B,/ D/4 D/4 (D/4E/4) C/4 C/4 (C/4D/4) B,/4 B,/4 B,/4 C/4 A,/4 A,/4 D/ D/4 D/4 (D/4E/4) C/4 C/4 (C/4D/4) B,/4 B,/4 B,/4 C/4A,/4A,/4 | %33
w: tà! Che cru del, * che cru del * che cru del, fa ta li tà! che cru del, * che cru del, * che cru del fa ta li|
w: |
 (E/4D/4) (D/4C/4) (C/4B,/4) (B,/4A,/4) (E/4D/4) (D/4C/4) (C/4B,/4) (B,/4A,/4) (E/4D/4) (D/4C/4) (C/4B,/4) (B,/4A,/4) (E/4D/4) (D/4C/4) (C/4B,/4) (B,/4A,/4) | %34
w: tà * fa _ ta _ li _ tà, * fa _ ta _ li _ tà * fa _ ta _ li _ tà, * fa _ ta _ li _|
w: |
 B,2 z2 z4 | z8 | z8 |] %37
w: tà!|||
w: |||
V:3
!p! z bb{/a}b{/a} b{/a}b{/a}b{/a}b |({bc')} (d'b/) z/ (gf/) z/ (gf/) z/ (gf/) z/ | %2
 [GB] z bb{/a} b{/a}b{/a}b{/a}b |{bc'} (d'b/) z/ (gf/) z/ (gf/) z/ (gf/) z/ | %4
 [GB] z bb{/a} b{/a}b{/a}b{/a}b |{bc'} (d'b/) z/ (gf/) z/ (gf/) z/ (gf/) z/ | %6
 [GB] z dd{/^c} d{/c}d{/c}d{/c}d |{d=e^f} (gd/) z/ (ed/) z/ (ed/) z/ (ed/) z/ | %8
 [GB] z .d.d{/^c} d{/c}d{/c}d{/c}d |({d=e)^f} (gd/) z/ (ed/) z/ (ed/) z/ (ed/) z/ | %10
 [GB] z [GB=e] z [Af] z [GB_e] z | [Af] z [B=eg] z [c_ea] z [db] z | %12
 [ec']/ z/ [db]/ z/ [ca]/ z/ [Bg]/ z/ !>![Af]4 | [GB] z .b.b{/a} b{/a}b{/a}b{/a}b | %14
{bc'} ((d'b/)) z/ ((gf/)) z/ ((gf/)) z/ ((gf/)) z/ | [GB] z .b.b{/a} b{/a}b{/a}b{/a}b | %16
({bc')} (((d'a/))) z/ (((gf/))) z/ ((((((gf/)))))) z/ ((((((gf/)))))) z/ | %17
 [GB] z dd{/^c} d{/c}d{/c}d{/c}d |{d=e^f} (gd/) z/ (ed/) z/ (ed/) z/ (ed/) z/ | %19
 [GB] z .d.d{/^c} d{/c}d{/c}d{/c}d |({d=e)^f} (gd/) z/ (ed/) z/ (ed/) z/ (ed/) z/ | %21
 [GB] z [GB=e] z [Af] z [GB_e] z | %22
 [Af] z [CEA]/[CEA]/[CEA]/[CEA]/ [Dd]/[Dd]/[Dd]/[Dd]/ [CEA]/[CEA]/[CEA]/[CEA]/ | %23
 [Dd]/[Dd]/[Dd]/[Dd]/ [CEA]/[CEA]/[CEA]/[CEA]/ [Dd]/[Dd]/[Dd]/[Dd]/ [CEA]/[CEA]/[CEA]/[CEA]/ | %24
 .[ce]/4.[Bd]/4.[Ac]/4.[Bd]/4 .[ce]/4.[Bd]/4.[Ac]/4.[Bd]/4 .[ce]/4.[Bd]/4.[Ac]/4.[Bd]/4 .[ce]/4.[Bd]/4.[Ac]/4.[Bd]/4 .[df]/4.[ce]/4.[=Bd]/4.[ce]/4 .[df]/4.[ce]/4.[Bd]/4.[ce]/4 .[df]/4.[ce]/4.[Bd]/4.[ce]/4 .[df]/4.[ce]/4.[Bd]/4.[ce]/4 | %25
 [df]/ [Ff][^F^f]/ g>d e/ e=e/ =f>e | %26
 [Gg]/ .[df]/4.[df]/4 [Bd]/[df]/ [ce]/ [eg]/4[eg]/4 [ce]/[eg]/ .[Bd]/ .[df]/4.[df]/4 [Bd]/[df]/ [ce]/ .[ce]/4.[ce]/4 [Ac]/[ce]/ | %27
 [Bd] z ([ceg]f/) z/{bc'} (d'b/) z/ ([ceg]f/) z/ | %28
 [Bd] z ([ceg]f/) z/{bc'} (d'b/) z/ ([ceg]f/) z/ | %29
 .[ce]/4.[Bd]/4.[Ac]/4.[Bd]/4 .[ce]/4.[Bd]/4.[Ac]/4.[Bd]/4 .[ce]/4.[Bd]/4.[Ac]/4.[Bd]/4 .[ce]/4.[Bd]/4.[Ac]/4.[Bd]/4 .[df]/4.[ce]/4.[=Bd]/4.[ce]/4 .[df]/4.[ce]/4.[Bd]/4.[ce]/4 .[df]/4.[ce]/4.[Bd]/4.[ce]/4 .[df]/4.[ce]/4.[Bd]/4.[ce]/4 | %30
 [df]/ [Ff][^F^f]/ g>d e/ e=e/ =f>e | %31
 [Gg]/ .[df]/4.[df]/4 [Bd]/[df]/ [ce]/ [eg]/4[eg]/4 [ce]/[eg]/ .[Bd]/ .[df]/4.[df]/4 [Bd]/[df]/ [ce]/ .[ce]/4.[ce]/4 [Ac]/[ce]/ | %32
 [Bd]/ .[df]/4.[df]/4 ([df]/4[eg]/4).[ce]/4.[ce]/4 ([ce]/4[df]/4).[Bd]/4.[Bd]/4 ([Bd]/4[ce]/4).[Ac]/4.[Ac]/4 [df]/ .[df]/4.[df]/4 ([df]/4[eg]/4).[ce]/4.[ce]/4 ([ce]/4[df]/4).[Bd]/4.[Bd]/4 [Bd]/4([ce]/4.[Ac]/4).[Ac]/4 | %33
 ([eg]/4[df]/4) ([df]/4[ce]/4) ([ce]/4[Bd]/4) ([Bd]/4[Ac]/4) (([eg]/4[df]/4)) (([df]/4[ce]/4)) (([ce]/4[Bd]/4)) (([Bd]/4[Ac]/4)) (((([ge']/4[fd']/4)))) (((([fd']/4[ec']/4)))) (((([ec']/4[db]/4)))) (((([db]/4[ca]/4)))) (([c'e']/4[bd']/4)) (([bd']/4[ac']/4)) (([ac']/4[gb]/4)) (([gb]/4[fa]/4)) | %34
 g z gf/ z/ gf/ z/ gf/ z/ |({Bc)} d2 z2 [DB]2 z2 |[K:bass] [D,B,]8 |] %37
V:4
!p! ([B,D][F,F]/) z/ ([B,D][F,F]/) z/ ([B,D][F,F]/) z/ ([B,D][F,F]/) z/ | %1
 ([B,D][F,F]/) z/ ([A,C][F,F]/) z/ ([B,D][F,F]/) z/ ([CE][F,F]/) z/ | %2
 (B,,B,/) z/ ([B,D][F,F]/) z/ ([B,D][F,F]/) z/ ([B,D][F,F]/) z/ | %3
 ([B,D][F,F]/) z/ ([A,C][F,F]/) z/ ([B,D][F,F]/) z/ ([CE][F,F]/) z/ | %4
 (B,,B,/) z/ ([B,D][F,F]/) z/ ([B,D][F,F]/) z/ ([B,D][F,F]/) z/ | %5
 ([B,D][F,F]/) z/ ([A,C][F,F]/) z/ ([B,D][F,F]/) z/ ([CE][F,F]/) z/ | %6
 ([G,B,][D,D]/) z/ ([G,B,][D,D]/) z/ ([G,B,][D,D]/) z/ ([G,B,][D,D]/) z/ | %7
 ([G,B,][D,D]/) z/ ([^F,A,][D,D]/) z/ ([G,B,][D,D]/) z/ ([F,A,C][D,D]/) z/ | %8
 ([G,B,][D,D]/) z/ ([G,B,][D,D]/) z/ ([G,B,][D,D]/) z/ ([G,B,][D,D]/) z/ | %9
 ([G,B,][D,D]/) z/ ([^F,A,][D,D]/) z/ ([G,B,][D,D]/) z/ ([F,A,C][D,D]/) z/ | %10
 [G,B,] z [C,C] z [F,C] z [C,C] z | [F,C] z [F,,F,] z [F,,F,] z [F,,F,] z | %12
 [F,,F,]/ z/ [F,,F,]/ z/ [F,,F,]/ z/ [F,,F,]/ z/ !>![F,CE]4 | %13
 ((B,,B,/)) z/ (([B,D][F,F]/)) z/ (([B,D][F,F]/)) z/ (([B,D][F,F]/)) z/ | %14
 (([B,D][F,F]/)) z/ (([A,C][F,F]/)) z/ (([B,D][F,F]/)) z/ (([CE][F,F]/)) z/ | %15
 (((((B,,B,/))))) z/ ((([B,D][F,F]/))) z/ (((((([B,D][F,F]/)))))) z/ (((((([B,D][F,F]/)))))) z/ | %16
 ((((((!>![B,D][F,F]/)))))) z/ (((!>![A,C][F,F]/))) z/ (((!>![B,D][F,F]/))) z/ ((((((!>![A,C][F,F]/)))))) z/ | %17
 ([G,B,][D,D]/) z/ ([G,B,][D,D]/) z/ ([G,B,][D,D]/) z/ ([G,B,][D,D]/) z/ | %18
 ([G,B,][D,D]/) z/ ([^F,A,][D,D]/) z/ ([G,B,][D,D]/) z/ ([A,C][D,D]/) z/ | %19
 ([G,B,][D,D]/) z/ ([G,B,][D,D]/) z/ ([G,B,][D,D]/) z/ ([G,B,][D,D]/) z/ | %20
 ([G,B,][D,D]/) z/ ([^F,A,][D,D]/) z/ ([G,B,][D,D]/) z/ ([F,A,C][D,D]/) z/ | %21
 [G,B,] z [C,C] z [F,C] z [C,C] z | [F,C] z .F,,.F, .B,,.B, .F,,.F, | %23
 .B,,.B, .F,,.F, .B,,.B, .F,,.F, | %24
 B,,/{/A,}B,/B,,/{/A,}B,/ B,,/{/A,}B,/B,,/{/A,}B,/ B,,/{/A,}B,/B,,/{/A,}B,/ B,,/{/A,}B,/B,,/{/A,}B,/ | %25
 [B,,B,]/ E/D/C/ =B,/ .[G,,G,]/.[A,,A,]/.[B,,B,]/ [C,C]/ (_D/C/_B,/) .A,/ .[F,,F,]/.[G,,G,]/.[A,,A,]/ | %26
 [B,,B,]/ z/ [B,DF]/ z/ [E,,E,]/ z/ [E,G,C]/ z/ [F,,F,]/ z/ [F,B,D]/ z/ [F,,F,]/ z/ [F,A,C]/ z/ | %27
 ([B,,B,][D,F,]/) z/ ([B,,B,][E,F,]/) z/ ([B,,B,][D,F,]/) z/ ([B,,B,][E,F,]/) z/ | %28
 ([B,,B,][D,F,]/) z/ ([B,,B,][E,F,]/) z/ ([B,,B,][D,F,]/) z/ ([B,,B,][E,F,]/) z/ | %29
 B,,/{/A,}B,/B,,/{/A,}B,/ B,,/{/A,}B,/B,,/{/A,}B,/ B,,/{/A,}B,/B,,/{/A,}B,/ B,,/{/A,}B,/B,,/{/A,}B,/ | %30
 [B,,B,]/ E/D/C/ =B,/ .[G,,G,]/.[A,,A,]/.[B,,B,]/ [C,C]/ (_D/C/_B,/) .A,/ .[F,,F,]/.[G,,G,]/.[A,,A,]/ | %31
 [B,,B,]/ z/ [B,DF]/ z/ [E,,E,]/ z/ [E,G,C]/ z/ [F,,F,]/ z/ [F,B,D]/ z/ [F,,F,]/ z/ [F,A,C]/ z/ | %32
 [B,,B,]/ z/ E,,/E,/ F,,/F,/F,,/F,/ B,,/[B,D]/ [E,,E,]/[E,G,C]/ [F,,F,]/[F,B,D]/ [F,,F,]/[F,A,C]/ | %33
 .B,,/.E,/.F,/.F,,/ .B,,/.E,/.F,/.F,,/ [B,,B,]/[E,G,C]/[F,B,D]/[F,A,E]/ [B,,B,]/[E,G,C]/[F,B,D]/[F,A,E]/ | %34
 [B,D][F,F]/ z/ [A,C][F,F]/ z/ [B,D][F,F]/ z/ [CE][F,F]/ z/ | [B,D]2 z2 [B,,F,B,]2 z2 | %36
 [B,,,B,,]8 |] %37
V:5
 x8 | x8 | x8 | x8 | x8 | x8 | x8 | x8 | x8 | x8 | x8 | x8 | x8 | x8 | x8 | x8 | x8 | x8 | x8 | %19
 x8 | x8 | x8 | x8 | x8 | x8 | x2 G2 G/ E=E/ =F2 | x8 | x8 | x8 | x8 | x2 G2 G/ E=E/ =F2 | x8 | %32
 x8 | x8 | x8 | x8 |[K:bass] x8 |] %37

